X: 39884
T: This Is My Love, Do You Like Her?
R: jig
M: 6/8
K: Edorian
D|:"Em"EFE EDB,|"G"G3 "D"A2F|"G"BcB BAF|"D"d3 "A"e2f|
"Em"edB GAB|"D"AFD DEF|"Em"GFE "D"FED|1 "Em"E3 E2D:|2 "Em"E3E2A||
|:"Em"Bee efe|"D"Add ded|"Em"Bee ede|"D"fed "Em"e2f|
"Em"edB GAB|"D"AFD DEF|"Em"GFE "D"FED|1 "Em"E3 E2A:|2 "Em"E3 E2||

